public/bg-pattern-quotation.svg

<svg width="104" height="102" xmlns="http://www.w3.org/2000/svg"><path d="M104 102V59.727H84.114c0-5.871.689-11.182 2.068-15.933 1.379-4.75 3.42-9.287 6.125-13.61C95.01 25.86 98.909 22.257 104 19.375V0c-9.758 4.27-17.712 9.874-23.864 16.813-6.151 6.939-10.712 14.545-13.681 22.818C63.485 47.904 62 59.941 62 75.74V102h42zm-62 0V59.727H22.114c0-5.871.689-11.182 2.068-15.933 1.379-4.75 3.42-9.287 6.125-13.61C33.01 25.86 36.909 22.257 42 19.375V0c-9.652 4.27-17.58 9.874-23.784 16.813C12.01 23.752 7.424 31.358 4.455 39.631 1.485 47.904 0 59.941 0 75.74V102h42z" fill="#A775F1" fill-rule="nonzero"/></svg>

<svg width="104" height="102" viewBox="0 0 104 102" fill="none" xmlns="http://www.w3.org/2000/svg">
<g clip-path="url(#clip0_200_7)">
<path d="M104 102V59.727H84.114C84.114 53.856 84.803 48.545 86.182 43.794C87.561 39.044 89.602 34.507 92.307 30.184C95.01 25.86 98.909 22.257 104 19.375V0C94.242 4.27 86.288 9.874 80.136 16.813C73.985 23.752 69.424 31.358 66.455 39.631C63.485 47.904 62 59.941 62 75.74V102H104ZM42 102V59.727H22.114C22.114 53.856 22.803 48.545 24.182 43.794C25.561 39.044 27.602 34.507 30.307 30.184C33.01 25.86 36.909 22.257 42 19.375V0C32.348 4.27 24.42 9.874 18.216 16.813C12.01 23.752 7.424 31.358 4.455 39.631C1.485 47.904 0 59.941 0 75.74V102H42Z" fill="#073C98"/>
</g>
<defs>
<clipPath id="clip0_200_7">
<rect width="104" height="102" fill="white"/>
</clipPath>
</defs>
</svg>
